X: 9363
T: Dancing Meerkat, The
R: jig
M: 6/8
K: Edorian
|:EGB ged|BGB AFA|EGB ged|Bcd e3|
EGB ged|BGG AFF|EGB ged|1 Bcd eAF:|2 Bcd e2f|
|:geB GBd|AFD DFA|gBG fAF|EGB e2f|
geB GBd|AFD DFA|EGB ged|1 Bcd e2f:|2 Bcd eAF||

